X: 39388
T: Taoing The Mark
R: jig
M: 6/8
K: Gminor
|:D|GAB AGF|GBe d2 B|cAd BGd|cBA ^FGA|
GAB AGF|GBe d2 B|cAd BGd|cBA G2:|
d|gdB GBg|fde f2 d|cAd BGd|cBA ^FGA|
gdB GBg|fde d2 B|cAd BGd|cAB A/d/^f/a/b/a/|
gdB G2 g|fde f2 d|cAd BGd|cAB cd^f|
gab c'ba|gdB GDB,|CA,D ^FGA|cAB G2||

